X: 1575
T: Fisher's Hornpipe
R:hornpipe
N:"Collected by McNamara"
N:"First Setting"
B:O'Neill's 1575
Z:Transcribed by Michael Hogan
M:C|
L:1/8
K:D
(3ABc | dGFA GBAG | FADF GBAG | FAdf gfed |ce A2 A2 (Bc) |
dGFA GBAG | FADF GBAG | FAdA BGEC | D2 DD D2 :|
|:(cd) | edcd efge | fdde fgaf | edcB Agfe | dcBc A2 (dc) |
B>G (3.G.G.G BcdB | A>F (3.F.F.F ABcA | BcdA BGEC | D2 DD D2 :||


